flaticon/hand-gestures/email.svg

<svg xmlns="http://www.w3.org/2000/svg" width="32" height="32" viewBox="0 0 24 24">
    <path d="M 23.777344 11.921875 C 23.148438 11.085938 22.523438 10.976562 21.214844 11.566406 L 21.214844 3.195312 C 21.214844 2.953125 21.054688 2.792969 20.8125 2.792969 L 4.003906 2.792969 C 3.773438 2.792969 3.617188 2.941406 3.605469 3.167969 C 3.601562 3.191406 3.601562 3.21875 3.601562 3.246094 L 3.601562 11.171875 C 3.296875 11.332031 3.027344 11.496094 2.800781 11.636719 L 2.800781 10.800781 L 0 10.800781 L 0 21.207031 L 2.800781 21.207031 L 2.800781 20.003906 L 8.003906 20.003906 C 8.804688 20.003906 9.648438 19.925781 10.445312 19.886719 L 15.652344 19.085938 C 15.851562 19.085938 16.050781 19.042969 16.210938 19.003906 C 16.691406 18.925781 17.132812 18.683594 17.53125 18.324219 L 23.574219 13.519531 C 24.054688 13.121094 24.136719 12.398438 23.777344 11.921875 Z M 11.246094 10.160156 C 11.566406 10.4375 12.007812 10.597656 12.410156 10.597656 C 12.808594 10.597656 13.25 10.480469 13.570312 10.160156 L 13.808594 9.945312 L 18.273438 13.296875 L 17.132812 14 C 16.660156 14.277344 15.605469 14.359375 14.617188 14.363281 C 14.625 14.3125 14.628906 14.265625 14.632812 14.21875 C 14.746094 13.886719 14.644531 13.492188 14.328125 13.039062 C 13.6875 12.121094 12.609375 11.558594 11.449219 11.558594 L 9.886719 11.558594 C 9.625 11.558594 9.367188 11.535156 9.113281 11.488281 L 10.988281 9.929688 Z M 19.007812 12.847656 L 14.414062 9.402344 L 20.414062 4.046875 L 20.414062 11.980469 Z M 19.773438 3.59375 L 13.007812 9.558594 C 12.6875 9.878906 12.128906 9.878906 11.769531 9.558594 L 5.042969 3.59375 Z M 4.402344 10.800781 L 4.402344 4.078125 L 10.386719 9.394531 L 8.214844 11.203125 C 8 11.101562 7.796875 10.980469 7.605469 10.839844 C 7.507812 10.765625 7.40625 10.703125 7.304688 10.652344 C 7.273438 10.632812 7.238281 10.617188 7.203125 10.597656 C 7.203125 10.558594 7.164062 10.558594 7.164062 10.558594 C 7.042969 10.519531 6.925781 10.480469 6.765625 10.4375 L 6.726562 10.4375 C 6.605469 10.4375 6.445312 10.398438 6.324219 10.398438 L 6.246094 10.398438 C 6.203125 10.398438 6.203125 10.398438 6.164062 10.398438 C 6.121094 10.398438 6.0625 10.398438 6.003906 10.40625 C 5.890625 10.414062 5.777344 10.425781 5.664062 10.441406 C 5.589844 10.445312 5.515625 10.453125 5.445312 10.480469 L 5.4375 10.480469 C 5.367188 10.496094 5.300781 10.511719 5.230469 10.527344 C 5.203125 10.53125 5.175781 10.539062 5.148438 10.546875 C 5.007812 10.585938 4.863281 10.628906 4.722656 10.679688 C 4.683594 10.6875 4.644531 10.699219 4.601562 10.71875 C 4.589844 10.726562 4.578125 10.730469 4.570312 10.734375 C 4.550781 10.742188 4.535156 10.746094 4.515625 10.753906 C 4.480469 10.765625 4.449219 10.777344 4.402344 10.800781 Z M 2 20.40625 L 0.800781 20.40625 L 0.800781 11.601562 L 2 11.601562 Z M 23.09375 12.960938 L 17.011719 17.683594 L 16.972656 17.722656 C 16.730469 18.003906 16.410156 18.164062 16.050781 18.203125 C 15.890625 18.246094 15.769531 18.246094 15.609375 18.246094 L 10.328125 19.042969 C 9.566406 19.164062 8.765625 19.203125 8.003906 19.203125 L 2.800781 19.203125 L 2.800781 12.601562 C 3.761719 11.917969 6.003906 10.640625 7.125 11.519531 C 7.722656 11.960938 8.46875 12.25 9.246094 12.355469 C 9.453125 12.386719 9.667969 12.398438 9.886719 12.398438 L 11.449219 12.398438 C 11.496094 12.398438 11.542969 12.402344 11.589844 12.402344 C 11.609375 12.40625 11.628906 12.40625 11.644531 12.40625 C 11.664062 12.410156 11.679688 12.410156 11.695312 12.410156 C 12.160156 12.449219 12.59375 12.601562 12.96875 12.839844 C 13.25 13.039062 13.488281 13.242188 13.648438 13.519531 C 13.800781 13.746094 13.855469 13.972656 13.816406 14.199219 C 13.632812 14.34375 13.214844 14.40625 12.769531 14.441406 C 12.625 14.441406 12.484375 14.441406 12.367188 14.441406 C 12.355469 14.441406 12.339844 14.441406 12.328125 14.441406 L 8.484375 14.441406 C 7.246094 14.441406 6.484375 15.042969 6.484375 16.042969 C 6.484375 16.28125 6.644531 16.441406 6.882812 16.441406 C 7.125 16.441406 7.285156 16.28125 7.285156 16.042969 C 7.285156 15.84375 7.285156 15.242188 8.484375 15.242188 L 12.289062 15.242188 C 12.3125 15.242188 12.339844 15.242188 12.367188 15.242188 C 12.476562 15.242188 12.617188 15.242188 12.808594 15.242188 C 12.847656 15.242188 12.929688 15.242188 13.007812 15.242188 C 14.890625 15.28125 16.652344 15.242188 17.570312 14.761719 L 21.015625 12.640625 C 22.695312 11.800781 22.855469 12 23.175781 12.480469 C 23.253906 12.601562 23.253906 12.839844 23.09375 12.960938 Z M 23.09375 12.960938"/>
</svg>

<svg xmlns="http://www.w3.org/2000/svg" width="32" height="32" viewBox="0 0 24 24">
    <path d="M23.777 11.922c-.629-.836-1.254-.945-2.562-.356v-8.37c0-.243-.16-.403-.402-.403H4.003c-.23 0-.386.148-.398.375-.003.023-.003.05-.003.078v7.926c-.305.16-.575.324-.801.465V10.8H0v10.406h2.8v-1.203h5.204c.8 0 1.644-.078 2.441-.117l5.207-.801c.2 0 .399-.043.559-.082.48-.078.922-.32 1.32-.68l6.043-4.804c.48-.399.563-1.122.203-1.598zm-12.53-1.762c.32.277.76.438 1.163.438.399 0 .84-.118 1.16-.438l.239-.215 4.464 3.352-1.14.703c-.473.277-1.528.36-2.516.363.008-.05.012-.097.016-.144.113-.332.012-.727-.305-1.18a3.512 3.512 0 0 0-2.879-1.48H9.887c-.262 0-.52-.024-.774-.07l1.875-1.56zm7.76 2.688l-4.593-3.446 6-5.355v7.933zm.766-9.254l-6.765 5.965c-.32.32-.88.32-1.238 0L5.043 3.594zM4.403 10.8V4.078l5.984 5.317-2.172 1.808a3.691 3.691 0 0 1-.61-.363 1.91 1.91 0 0 0-.3-.188c-.032-.02-.067-.035-.102-.054 0-.04-.039-.04-.039-.04-.121-.038-.238-.078-.398-.12h-.04c-.12 0-.28-.04-.402-.04h-.16c-.043 0-.101 0-.16.008-.113.008-.227.02-.34.035a.697.697 0 0 0-.219.04h-.008l-.207.046a5.929 5.929 0 0 0-.508.152.543.543 0 0 0-.12.04c-.012.008-.024.011-.032.015l-.054.02a.784.784 0 0 0-.114.047zM2 20.406H.8v-8.804H2zm21.094-7.445l-6.082 4.723-.04.039a1.39 1.39 0 0 1-.921.48c-.16.043-.281.043-.442.043l-5.28.797c-.763.121-1.563.16-2.325.16H2.8v-6.601c.96-.684 3.203-1.961 4.324-1.082.598.44 1.344.73 2.121.835.207.032.422.043.64.043h1.563c.047 0 .094.004.14.004.02.004.04.004.056.004a2.809 2.809 0 0 1 1.324.434c.281.2.52.402.68.68.152.226.206.453.167.68-.183.144-.601.206-1.046.241H8.484c-1.238 0-2 .602-2 1.602 0 .238.16.398.399.398.242 0 .402-.16.402-.398 0-.2 0-.8 1.2-.8h4.523c1.883.038 3.644 0 4.562-.481l3.446-2.121c1.68-.84 1.84-.641 2.16-.16.078.12.078.359-.082.48zm0 0"/>
</svg>
